SF_Symbols/figure.fall.svg

<?xml version="1.0" encoding="UTF-8"?>
<svg xmlns="http://www.w3.org/2000/svg" xmlns:xlink="http://www.w3.org/1999/xlink" width="24" height="24" viewBox="0 0 24 24" version="1.1">
<g id="surface1">
<path style=" stroke:none;fill-rule:nonzero;fill:rgb(100%,100%,100%);fill-opacity:1;" d="M 5.261719 7.230469 C 5.730469 7.230469 6.15625 7.117188 6.539062 6.890625 C 6.929688 6.664062 7.238281 6.359375 7.464844 5.976562 C 7.699219 5.585938 7.816406 5.152344 7.816406 4.675781 C 7.816406 4.207031 7.699219 3.78125 7.464844 3.398438 C 7.238281 3.007812 6.929688 2.699219 6.539062 2.472656 C 6.15625 2.238281 5.730469 2.121094 5.261719 2.121094 C 4.792969 2.121094 4.363281 2.238281 3.972656 2.472656 C 3.589844 2.699219 3.28125 3.007812 3.046875 3.398438 C 2.820312 3.78125 2.707031 4.207031 2.707031 4.675781 C 2.707031 5.152344 2.820312 5.585938 3.046875 5.976562 C 3.28125 6.359375 3.589844 6.664062 3.972656 6.890625 C 4.363281 7.117188 4.792969 7.230469 5.261719 7.230469 Z M 0.691406 12.152344 L 1.371094 16.347656 C 1.441406 16.730469 1.597656 17.003906 1.839844 17.167969 C 2.082031 17.332031 2.34375 17.394531 2.625 17.355469 C 2.90625 17.308594 3.136719 17.175781 3.316406 16.957031 C 3.503906 16.730469 3.566406 16.425781 3.503906 16.042969 L 2.90625 12.421875 L 5.285156 11.496094 C 5.691406 11.339844 5.96875 11.421875 6.117188 11.742188 L 8.308594 16.078125 C 8.636719 16.726562 8.941406 17.1875 9.222656 17.460938 C 9.503906 17.734375 9.777344 17.96875 10.042969 18.164062 L 17.109375 23.355469 C 17.421875 23.582031 17.730469 23.660156 18.035156 23.589844 C 18.339844 23.519531 18.585938 23.363281 18.773438 23.121094 C 18.960938 22.878906 19.039062 22.601562 19.007812 22.289062 C 18.984375 21.976562 18.796875 21.691406 18.445312 21.433594 L 12.949219 17.402344 C 12.816406 17.300781 12.753906 17.175781 12.761719 17.027344 C 12.769531 16.878906 12.847656 16.761719 12.996094 16.675781 L 16.734375 14.519531 L 21.632812 16.863281 C 21.984375 17.027344 22.300781 17.050781 22.582031 16.933594 C 22.871094 16.816406 23.082031 16.625 23.214844 16.359375 C 23.347656 16.09375 23.367188 15.8125 23.273438 15.515625 C 23.179688 15.21875 22.925781 14.972656 22.511719 14.777344 L 17.285156 12.292969 C 16.964844 12.136719 16.65625 12.078125 16.359375 12.117188 C 16.0625 12.148438 15.785156 12.238281 15.527344 12.386719 L 13.066406 13.828125 C 12.753906 14.015625 12.527344 13.964844 12.386719 13.675781 L 10.40625 9.644531 C 10.3125 9.457031 10.28125 9.277344 10.3125 9.105469 C 10.351562 8.933594 10.472656 8.800781 10.675781 8.707031 L 12.480469 7.886719 C 12.777344 7.746094 12.992188 7.609375 13.125 7.476562 C 13.265625 7.335938 13.378906 7.121094 13.464844 6.832031 L 14.613281 2.859375 C 14.714844 2.484375 14.691406 2.175781 14.542969 1.933594 C 14.394531 1.691406 14.1875 1.535156 13.921875 1.464844 C 13.65625 1.386719 13.394531 1.414062 13.136719 1.546875 C 12.878906 1.679688 12.695312 1.933594 12.585938 2.308594 L 11.472656 6.199219 L 1.488281 10.59375 C 0.824219 10.882812 0.558594 11.402344 0.691406 12.152344 Z M 0.691406 12.152344 "/>
</g>
</svg>

<svg xmlns="http://www.w3.org/2000/svg" width="24" height="24"><path style="stroke:none;fill-rule:nonzero;fill:#fff;fill-opacity:1" d="M5.262 7.23c.449.004.89-.113 1.277-.34a2.534 2.534 0 0 0 1.277-2.214c0-.469-.117-.895-.351-1.278-.227-.39-.535-.699-.926-.925a2.412 2.412 0 0 0-1.277-.352c-.469 0-.899.117-1.29.352-.382.226-.699.543-.925.925a2.484 2.484 0 0 0-.34 1.278c0 .476.113.91.34 1.3.234.383.543.688.926.915.39.226.82.34 1.289.34Zm-4.57 4.922.68 4.196c.07.382.226.656.468.82a1.09 1.09 0 0 0 1.476-.211c.188-.227.25-.531.188-.914l-.598-3.621 2.38-.926c.405-.156.683-.074.831.246l2.192 4.336c.328.649.632 1.11.914 1.383.28.273.554.508.82.703l7.066 5.191c.313.227.621.305.926.235.305-.07.55-.227.738-.469.188-.242.266-.52.235-.832-.024-.312-.211-.598-.563-.855l-5.496-4.032c-.133-.101-.195-.226-.187-.375.008-.148.086-.265.234-.351l3.738-2.156 4.899 2.343c.351.164.668.188.949.07.29-.117.5-.308.633-.574.133-.265.152-.547.058-.843-.093-.297-.347-.543-.761-.739l-5.227-2.484c-.32-.156-.629-.215-.926-.176a2.087 2.087 0 0 0-.832.27l-2.46 1.441c-.313.188-.54.137-.68-.152l-1.98-4.031a.837.837 0 0 1-.095-.54c.04-.171.16-.304.364-.398l1.804-.82c.297-.14.512-.278.645-.41.14-.141.254-.356.34-.645l1.148-3.973c.102-.375.078-.683-.07-.925a1.003 1.003 0 0 0-.621-.47 1.02 1.02 0 0 0-.785.083c-.258.133-.442.387-.551.762l-1.113 3.89-9.985 4.395c-.664.289-.93.808-.797 1.558Zm0 0"/></svg>
